web/workspace/public/assets/icons/white/calendar.svg

<?xml version="1.0" encoding="iso-8859-1"?>
<!-- Generator: Adobe Illustrator 14.0.0, SVG Export Plug-In . SVG Version: 6.00 Build 43363)  -->
<!DOCTYPE svg PUBLIC "-//W3C//DTD SVG 1.1//EN" "http://www.w3.org/Graphics/SVG/1.1/DTD/svg11.dtd">
<svg version="1.1" id="Layer_1" xmlns="http://www.w3.org/2000/svg" xmlns:xlink="http://www.w3.org/1999/xlink" x="0px" y="0px"
	 width="30px" height="30px" viewBox="0 0 30 30" style="enable-background:new 0 0 30 30;" xml:space="preserve">
<path style="fill:#fff" d="M25,4c0-1.656-1.343-3-3-3s-3,1.344-3,3h-8c0-1.656-1.343-3-3-3S5,2.344,5,4H1v25h28V4H25z M21,4c0-0.551,0.448-1,1-1
	s1,0.449,1,1v2c0,0.551-0.448,1-1,1s-1-0.449-1-1V4z M7,4c0-0.551,0.448-1,1-1s1,0.449,1,1v2c0,0.551-0.448,1-1,1S7,6.551,7,6V4z
	 M27,27H3V13h24V27z M27,11H3V6h2c0,1.656,1.343,3,3,3s3-1.344,3-3h8c0,1.656,1.343,3,3,3s3-1.344,3-3h2V11z M24,15H10v4H6v6h18V15z
	 M10,23H8v-2h2V23z M14,23h-2v-2h2V23z M14,19h-2v-2h2V19z M18,23h-2v-2h2V23z M18,19h-2v-2h2V19z M22,23h-2v-2h2V23z M22,19h-2v-2
	h2V19z"/>
</svg>

<svg xmlns="http://www.w3.org/2000/svg" width="30" height="30" viewBox="0 0 30 30"><path d="M25 4a3 3 0 0 0-6 0h-8a3 3 0 0 0-6 0H1v25h28V4h-4zm-4 0a1.001 1.001 0 0 1 2 0v2a1.001 1.001 0 0 1-2 0V4zM7 4a1.001 1.001 0 0 1 2 0v2a1.001 1.001 0 0 1-2 0V4zm20 23H3V13h24v14zm0-16H3V6h2a3 3 0 0 0 6 0h8a3 3 0 0 0 6 0h2v5zm-3 4H10v4H6v6h18V15zm-14 8H8v-2h2v2zm4 0h-2v-2h2v2zm0-4h-2v-2h2v2zm4 4h-2v-2h2v2zm0-4h-2v-2h2v2zm4 4h-2v-2h2v2zm0-4h-2v-2h2v2z" fill="#fff"/></svg>
